day131/svg/business.svg

<svg height="480pt" viewBox="0 -24 480 480" width="480pt" xmlns="http://www.w3.org/2000/svg"><path d="m456 72h-104v-32c-.027344-22.082031-17.917969-39.9726562-40-40h-144c-22.082031.0273438-39.972656 17.917969-40 40v32h-104c-13.253906 0-24 10.746094-24 24v178.078125c.0507812 10.148437 6.445312 19.175781 16 22.585937v111.335938c0 13.253906 10.746094 24 24 24h400c13.253906 0 24-10.746094 24-24v-111.328125c9.554688-3.414063 15.953125-12.445313 16-22.59375v-178.078125c0-13.253906-10.746094-24-24-24zm-312-32c0-13.253906 10.746094-24 24-24h144c13.253906 0 24 10.746094 24 24v32h-16v-32c0-4.417969-3.582031-8-8-8h-144c-4.417969 0-8 3.582031-8 8v32h-16zm160 32h-128v-24h128zm144 336c0 4.417969-3.582031 8-8 8h-400c-4.417969 0-8-3.582031-8-8v-108.585938l176 24.273438v20.3125c0 13.253906 10.746094 24 24 24h16c13.253906 0 24-10.746094 24-24v-20.3125l176-24.273438zm-192-64c0 4.417969-3.582031 8-8 8h-16c-4.417969 0-8-3.582031-8-8v-48c0-4.417969 3.582031-8 8-8h16c4.417969 0 8 3.582031 8 8zm208-69.921875c.003906 3.988281-2.929688 7.371094-6.878906 7.929687l-2.21875.304688-182.902344 25.222656v-11.535156c0-13.253906-10.746094-24-24-24h-16c-13.253906 0-24 10.746094-24 24v11.535156l-185.113281-25.527344c-3.949219-.554687-6.890625-3.9375-6.886719-7.929687v-178.078125c0-4.417969 3.582031-8 8-8h432c4.417969 0 8 3.582031 8 8zm0 0"/></svg>

<?xml version="1.0" encoding="UTF-8"?>
<svg width="480px" height="432px" viewBox="0 0 480 432" version="1.1" xmlns="http://www.w3.org/2000/svg" xmlns:xlink="http://www.w3.org/1999/xlink">
    <!-- Generator: Sketch 53.2 (72643) - https://sketchapp.com -->
    <title>business</title>
    <desc>Created with Sketch.</desc>
    <g id="Page-1" stroke="none" stroke-width="1" fill="none" fill-rule="evenodd">
        <g id="business" fill="#BBBBBB" fill-rule="nonzero">
            <path d="M456,72 L352,72 L352,40 C351.972656,17.917969 334.082031,0.0273438 312,0 L168,0 C145.917969,0.0273438 128.027344,17.917969 128,40 L128,72 L24,72 C10.746094,72 0,82.746094 0,96 L0,274.078125 C0.0507812,284.226562 6.445312,293.253906 16,296.664062 L16,408 C16,421.253906 26.746094,432 40,432 L440,432 C453.253906,432 464,421.253906 464,408 L464,296.671875 C473.554688,293.257812 479.953125,284.226562 480,274.078125 L480,96 C480,82.746094 469.253906,72 456,72 Z M144,40 C144,26.746094 154.746094,16 168,16 L312,16 C325.253906,16 336,26.746094 336,40 L336,72 L320,72 L320,40 C320,35.582031 316.417969,32 312,32 L168,32 C163.582031,32 160,35.582031 160,40 L160,72 L144,72 L144,40 Z M304,72 L176,72 L176,48 L304,48 L304,72 Z M448,408 C448,412.417969 444.417969,416 440,416 L40,416 C35.582031,416 32,412.417969 32,408 L32,299.414062 L208,323.6875 L208,344 C208,357.253906 218.746094,368 232,368 L248,368 C261.253906,368 272,357.253906 272,344 L272,323.6875 L448,299.414062 L448,408 Z M256,344 C256,348.417969 252.417969,352 248,352 L232,352 C227.582031,352 224,348.417969 224,344 L224,296 C224,291.582031 227.582031,288 232,288 L248,288 C252.417969,288 256,291.582031 256,296 L256,344 Z M464,274.078125 C464.003906,278.066406 461.070312,281.449219 457.121094,282.007812 L454.902344,282.3125 L272,307.535156 L272,296 C272,282.746094 261.253906,272 248,272 L232,272 C218.746094,272 208,282.746094 208,296 L208,307.535156 L22.886719,282.007812 C18.9375,281.453125 15.996094,278.070312 16,274.078125 L16,96 C16,91.582031 19.582031,88 24,88 L456,88 C460.417969,88 464,91.582031 464,96 L464,274.078125 Z" id="Shape"></path>
        </g>
    </g>
</svg>
